website/static/img/folder-open.svg

<svg fill="none" height="20" viewBox="0 0 20 20" width="20" xmlns="http://www.w3.org/2000/svg"><path d="m17.4139 10.9399-1.886 3.2332c-.1468.2516-.357.4604-.6095.6055-.2526.1451-.5388.2214-.8301.2214h-10.41577c-.48237 0-.78292-.5233-.53987-.9399l1.88604-3.2332c.14678-.2516.35694-.4604.60953-.6055.2526-.1451.53881-.2214.8301-.2214h10.41577c.4823 0 .7829.5233.5398.9399zm-10.95557-1.77323h8.54167v-1.25c0-.69037-.5596-1.25-1.25-1.25h-4.16667l-1.66666-1.66667h-4.16667c-.69036 0-1.25.55964-1.25 1.25v7.2408l1.79888-3.0838c.44628-.76507 1.27375-1.24033 2.15945-1.24033z" fill="#4b5563"/></svg>

<svg width="20" height="20" viewBox="0 0 20 20" fill="none" xmlns="http://www.w3.org/2000/svg">
<path d="M17.4139 10.9399L15.5279 14.1731C15.3811 14.4247 15.1709 14.6335 14.9184 14.7786C14.6658 14.9237 14.3796 15 14.0883 15H3.67253C3.19016 15 2.88961 14.4767 3.13266 14.0601L5.0187 10.8269C5.16548 10.5753 5.37564 10.3665 5.62823 10.2214C5.88083 10.0763 6.16704 10 6.45833 10H16.8741C17.3564 10 17.657 10.5233 17.4139 10.9399ZM6.45833 9.16667H15V7.91667C15 7.2263 14.4404 6.66667 13.75 6.66667H9.58333L7.91667 5H3.75C3.05964 5 2.5 5.55964 2.5 6.25V13.4908L4.29888 10.407C4.74516 9.64193 5.57263 9.16667 6.45833 9.16667Z" fill="#4B5563"/>
</svg>
